modules/themify-icons/icons/ruler-alt-2.svg

<?xml version="1.0" encoding="utf-8"?>
<!-- Generated by IcoMoon.io -->
<!DOCTYPE svg PUBLIC "-//W3C//DTD SVG 1.1//EN" "http://www.w3.org/Graphics/SVG/1.1/DTD/svg11.dtd">
<svg version="1.1" xmlns="http://www.w3.org/2000/svg" xmlns:xlink="http://www.w3.org/1999/xlink" width="17" height="17" viewBox="0 0 17 17">
<g>
</g>
	<path d="M0 0.293v16.707h16.707l-16.707-16.707zM1 2.707l2.957 2.957-0.655 0.655 0.707 0.707 0.655-0.655 0.709 0.709-0.655 0.656 0.707 0.707 0.655-0.655 0.71 0.709-0.655 0.655 0.707 0.707 0.655-0.655 0.71 0.71-0.655 0.655 0.707 0.707 0.655-0.655 0.709 0.709-0.655 0.655 0.707 0.707 0.655-0.655 0.71 0.71-0.655 0.655 0.707 0.707 0.655-0.655 2.546 2.546h-13.293v-13.293zM2 15h7.707l-7.707-7.707v7.707zM3 9.707l4.293 4.293h-4.293v-4.293z" fill="#000000" />
</svg>

<svg xmlns="http://www.w3.org/2000/svg" width="17" height="17"><path d="M0 .293V17h16.707L0 .293zm1 2.414l2.957 2.957-.655.655.707.707.655-.655.709.709-.655.656.707.707.655-.655.71.709-.655.655.707.707.655-.655.71.71-.655.655.707.707.655-.655.709.709-.655.655.707.707.655-.655.71.71-.655.655.707.707.655-.655L14.293 16H1V2.707zM2 15h7.707L2 7.293V15zm1-5.293L7.293 14H3V9.707z"/></svg>
